X:22
T:No Song no Supper. Tho24CDs1792.22
M:6/8
Q:3/8=108
L:1/16
C:"94"
W: Hands across quite Round .|
W: Left hands back again:|
W: Promenade 3 Cu: all Round :|.
W: 1st & 2d Cu: Pousset :|
B:Thompson 24 CDs 1792
Z:Village Music Project, Anne Wride, 2017
K:Bb
|:B3cB2 F2D2F2|B3cB2 F2D2F2|B2F2B2 d2B2d2|f2g2f2 e2d2c2|
B3cB2 F2D2F2|B3cB2 F2D2F2|B2F2B2 d2B2d2|c3Bc2 B6:|
|:(d2b2)b2 (c2a2)a2|(B2g2)g2 (A2f2)f2|g2f2e2 d2c2B2|A2c2B2 A2G2F2|
(d2b2)b2 (c2a2)a2|(B2g2)g2 (A2f2)f2|g2f2e2 d2c2B2|F2G2A2 B6:|

